;FLAVOR:Marlin
;TIME:6301
;Filament used: 3.30183m
;Layer height: 0.16
;MINX:74.2
;MINY:48.2
;MINZ:0.2
;MAXX:160.8
;MAXY:186.8
;MAXZ:4.96
;Generated with Cura_SteamEngine 5.0.0
M140 S50
M105
M190 S50
M104 S200
M105
M109 S200
M82 ;absolute extrusion mode
; Ender 3 Custom Start G-code
G92 E0 ; Reset Extruder
G28 ; Home all axes
G1 Z2.0 F3000 ; Move Z Axis up little to prevent scratching of Heat Bed
G1 X0.1 Y20 Z0.3 F5000.0 ; Move to start position
G1 X0.1 Y200.0 Z0.3 F1500.0 E15 ; Draw the first line
G1 X0.4 Y200.0 Z0.3 F5000.0 ; Move to side a little
G1 X0.4 Y20 Z0.3 F1500.0 E30 ; Draw the second line
G92 E0 ; Reset Extruder
G1 Z2.0 F3000 ; Move Z Axis up little to prevent scratching of Heat Bed
G1 X5 Y20 Z0.3 F5000.0 ; Move over to prevent blob squish
G92 E0
G92 E0
G1 F2700 E-5
;LAYER_COUNT:30
;LAYER:0
M107
G0 F6000 X76.196 Y52.903 Z0.2
G0 X74.201 Y59.725
;TYPE:SKIRT
G1 F2700 E0
G1 F1200 X74.21 Y59.06 E0.02212
G1 X74.263 Y58.124 E0.0533
G1 X74.395 Y57.195 E0.08451
G1 X74.606 Y56.281 E0.11571
G1 X74.894 Y55.389 E0.14689
G1 X75.257 Y54.524 E0.17809
G1 X75.692 Y53.693 E0.20928
G1 X76.196 Y52.903 E0.24045
G1 X76.766 Y52.158 E0.27165
G1 X77.398 Y51.464 E0.30287
G1 X78.086 Y50.827 E0.33405
G1 X78.826 Y50.251 E0.36524
G1 X79.612 Y49.739 E0.39644
G1 X80.439 Y49.297 E0.42763
G1 X81.301 Y48.927 E0.45883
G1 X82.191 Y48.631 E0.49003
G1 X83.103 Y48.413 E0.52122
G1 X84.03 Y48.272 E0.5524
G1 X84.901 Y48.213 E0.58144
G1 X85.53 Y48.2 E0.60236
G1 X149.093 Y48.2 E2.71648
G1 X149.949 Y48.211 E2.74495
G1 X150.885 Y48.265 E2.77613
G1 X151.813 Y48.397 E2.80731
G1 X152.727 Y48.609 E2.83852
G1 X153.619 Y48.898 E2.8697
G1 X154.484 Y49.261 E2.9009
G1 X155.314 Y49.697 E2.93209
G1 X156.105 Y50.202 E2.9633
G1 X156.849 Y50.773 E2.99449
G1 X157.542 Y51.405 E3.02569
G1 X158.179 Y52.093 E3.05687
G1 X158.754 Y52.834 E3.08807
G1 X159.265 Y53.62 E3.11925
G1 X159.707 Y54.448 E3.15047
G1 X160.076 Y55.31 E3.18165
G1 X160.371 Y56.2 E3.21284
G1 X160.589 Y57.112 E3.24403
G1 X160.729 Y58.04 E3.27524
G1 X160.787 Y58.901 E3.30394
G1 X160.8 Y59.53 E3.32487
G1 X160.8 Y96.385 E4.55067
G1 X160.794 Y98.082 E4.60711
G1 X160.8 Y98.919 E4.63495
G1 X160.8 Y135.885 E5.86445
G1 X160.794 Y137.582 E5.92089
G1 X160.8 Y138.419 E5.94873
G1 X160.799 Y175.2 E7.17207
G1 X160.79 Y175.927 E7.19625
G1 X160.739 Y176.864 E7.22746
G1 X160.607 Y177.792 E7.25864
G1 X160.398 Y178.706 E7.28982
G1 X160.111 Y179.599 E7.32102
G1 X159.749 Y180.465 E7.35224
G1 X159.315 Y181.296 E7.38342
G1 X158.811 Y182.087 E7.41462
G1 X158.242 Y182.832 E7.4458
G1 X157.611 Y183.527 E7.47702
G1 X156.924 Y184.165 E7.5082
G1 X156.185 Y184.742 E7.53939
G1 X155.399 Y185.254 E7.57059
G1 X154.573 Y185.697 E7.60176
G1 X153.711 Y186.069 E7.63299
G1 X152.822 Y186.365 E7.66415
G1 X151.91 Y186.585 E7.69535
G1 X150.983 Y186.726 E7.72654
G1 X150.099 Y186.787 E7.75601
G1 X149.47 Y186.8 E7.77694
G1 X85.765 Y186.799 E9.89577
G1 X85.067 Y186.79 E9.91899
G1 X84.131 Y186.738 E9.95017
G1 X83.202 Y186.606 E9.98138
G1 X82.288 Y186.396 E10.01257
G1 X81.395 Y186.109 E10.04377
G1 X80.53 Y185.746 E10.07497
G1 X79.699 Y185.312 E10.10615
G1 X78.908 Y184.808 E10.13735
G1 X78.163 Y184.238 E10.16855
G1 X77.469 Y183.607 E10.19974
G1 X76.832 Y182.92 E10.2309
G1 X76.255 Y182.18 E10.26211
G1 X75.743 Y181.394 E10.29331
G1 X75.3 Y180.567 E10.32452
G1 X74.929 Y179.706 E10.3557
G1 X74.633 Y178.816 E10.3869
G1 X74.414 Y177.904 E10.41809
G1 X74.273 Y176.977 E10.44928
G1 X74.213 Y176.088 E10.47891
G1 X74.2 Y175.458 E10.49987
G1 X74.2 Y138.615 E11.72528
G1 X74.206 Y136.918 E11.78172
G1 X74.2 Y136.081 E11.80956
G1 X74.2 Y99.115 E13.03905
G1 X74.206 Y97.418 E13.0955
G1 X74.2 Y96.581 E13.12333
G1 X74.201 Y59.725 E14.34917
G0 F6000 X74.601 Y59.731
G1 F1200 X74.61 Y59.066 E14.37129
G1 X74.662 Y58.146 E14.40194
G1 X74.794 Y57.235 E14.43255
G1 X75.005 Y56.339 E14.46317
G1 X75.292 Y55.464 E14.4938
G1 X75.655 Y54.618 E14.52442
G1 X76.089 Y53.806 E14.55504
G1 X76.592 Y53.035 E14.58566
G1 X77.161 Y52.311 E14.61629
G1 X77.789 Y51.639 E14.64688
G1 X78.474 Y51.023 E14.67752
G1 X79.21 Y50.47 E14.70814
G1 X79.991 Y49.982 E14.73877
G1 X80.811 Y49.564 E14.76938
G1 X81.665 Y49.219 E14.80001
G1 X82.545 Y48.949 E14.83063
G1 X83.445 Y48.757 E14.86124
G1 X84.359 Y48.643 E14.89187
G1 X84.912 Y48.613 E14.91029
G1 X85.53 Y48.6 E14.93085
G1 X149.093 Y48.6 E17.04497
G1 X149.943 Y48.611 E17.07324
G1 X150.862 Y48.664 E17.10386
G1 X151.773 Y48.797 E17.13448
G1 X152.669 Y49.008 E17.16509
G1 X153.543 Y49.296 E17.1957
G1 X154.39 Y49.659 E17.22635
G1 X155.201 Y50.094 E17.25696
G1 X155.971 Y50.598 E17.28757
G1 X156.695 Y51.167 E17.3182
G1 X157.367 Y51.797 E17.34883
G1 X157.982 Y52.482 E17.37945
G1 X158.535 Y53.218 E17.41007
G1 X159.022 Y53.999 E17.44068
G1 X159.439 Y54.82 E17.47131
G1 X159.784 Y55.674 E17.50194
G1 X160.053 Y56.554 E17.53255
G1 X160.245 Y57.455 E17.56319
G1 X160.358 Y58.368 E17.59379
G1 X160.396 Y59.232 E17.62255
G1 X160.4 Y96.384 E18.85823
G1 X160.394 Y98.085 E18.91481
G1 X160.4 Y98.922 E18.94265
G1 X160.4 Y135.884 E20.17201
G1 X160.394 Y137.585 E20.22859
G1 X160.4 Y138.422 E20.25642
G1 X160.399 Y175.195 E21.4795
G1 X160.39 Y175.922 E21.50368
G1 X160.339 Y176.841 E21.53429
G1 X160.208 Y177.753 E21.56494
G1 X159.998 Y178.649 E21.59555
G1 X159.712 Y179.524 E21.62617
G1 X159.351 Y180.371 E21.65679
G1 X158.917 Y181.183 E21.68741
G1 X158.415 Y181.955 E21.71804
G1 X157.847 Y182.68 E21.74867
G1 X157.219 Y183.353 E21.77929
G1 X156.535 Y183.969 E21.8099
G1 X155.8 Y184.523 E21.84052
G1 X155.02 Y185.012 E21.87114
G1 X154.2 Y185.431 E21.90176
G1 X153.347 Y185.777 E21.93238
G1 X152.467 Y186.048 E21.96301
G1 X151.567 Y186.241 E21.99362
G1 X150.653 Y186.356 E22.02426
G1 X150.088 Y186.387 E22.04308
G1 X149.47 Y186.4 E22.06364
G1 X85.77 Y186.399 E24.18231
G1 X85.072 Y186.39 E24.20553
G1 X84.153 Y186.338 E24.23614
G1 X83.242 Y186.207 E24.26675
G1 X82.346 Y185.997 E24.29736
G1 X81.471 Y185.71 E24.32799
G1 X80.624 Y185.348 E24.35863
G1 X79.812 Y184.914 E24.38925
G1 X79.041 Y184.412 E24.41985
G1 X78.316 Y183.844 E24.45048
G1 X77.643 Y183.215 E24.48112
G1 X77.028 Y182.531 E24.51171
G1 X76.474 Y181.796 E24.54233
G1 X75.986 Y181.015 E24.57296
G1 X75.567 Y180.195 E24.60359
G1 X75.221 Y179.342 E24.6342
G1 X74.951 Y178.462 E24.66482
G1 X74.758 Y177.561 E24.69546
G1 X74.644 Y176.648 E24.72607
G1 X74.613 Y176.077 E24.74509
G1 X74.6 Y175.458 E24.76568
G1 X74.6 Y138.616 E25.99105
G1 X74.606 Y136.915 E26.04762
G1 X74.6 Y136.078 E26.07546
G1 X74.6 Y99.116 E27.30482
G1 X74.606 Y97.415 E27.3614
G1 X74.6 Y96.578 E27.38924
G1 X74.601 Y59.731 E28.61478
G0 F6000 X75.001 Y59.736
G1 F1200 X75.01 Y59.071 E28.6369
G1 X75.062 Y58.169 E28.66695
G1 X75.194 Y57.276 E28.69697
G1 X75.404 Y56.398 E28.727
G1 X75.691 Y55.541 E28.75706
G1 X76.053 Y54.714 E28.78708
G1 X76.486 Y53.922 E28.8171
G1 X76.988 Y53.171 E28.84715
G1 X77.555 Y52.467 E28.87721
G1 X78.181 Y51.817 E28.90723
G1 X78.862 Y51.224 E28.93726
G1 X79.594 Y50.694 E28.96732
G1 X80.369 Y50.231 E28.99735
G1 X81.182 Y49.838 E29.02738
G1 X82.027 Y49.518 E29.05743
G1 X82.896 Y49.275 E29.08745
G1 X83.784 Y49.109 E29.11749
G1 X84.923 Y49.013 E29.15551
G1 X85.53 Y49 E29.1757
G1 X149.093 Y49 E31.28982
G1 X149.937 Y49.011 E31.31789
G1 X150.839 Y49.064 E31.34794
G1 X151.732 Y49.196 E31.37797
G1 X152.61 Y49.407 E31.408
G1 X153.466 Y49.695 E31.43804
G1 X154.293 Y50.057 E31.46807
G1 X155.085 Y50.492 E31.49812
G1 X155.836 Y50.994 E31.52817
G1 X156.539 Y51.561 E31.5582
G1 X157.189 Y52.188 E31.58824
G1 X157.781 Y52.87 E31.61828
G1 X158.311 Y53.601 E31.64831
G1 X158.773 Y54.377 E31.67835
G1 X159.166 Y55.19 E31.70838
G1 X159.484 Y56.035 E31.73841
G1 X159.727 Y56.905 E31.76846
G1 X159.892 Y57.793 E31.7985
G1 X159.987 Y58.923 E31.83621
G1 X160 Y59.53 E31.85641
G1 X160 Y96.383 E33.08214
G1 X159.994 Y98.088 E33.13885
G1 X160 Y98.925 E33.16669
G1 X160 Y135.883 E34.39592
G1 X159.994 Y137.588 E34.45263
G1 X160 Y138.425 E34.48047
G1 X159.999 Y175.19 E35.70328
G1 X159.99 Y175.917 E35.72746
G1 X159.939 Y176.819 E35.75751
G1 X159.808 Y177.713 E35.78756
G1 X159.599 Y178.591 E35.81758
G1 X159.313 Y179.448 E35.84763
G1 X158.952 Y180.276 E35.87767
G1 X158.52 Y181.068 E35.90767
G1 X158.019 Y181.82 E35.93773
G1 X157.453 Y182.524 E35.96777
G1 X156.828 Y183.175 E35.99779
G1 X156.147 Y183.769 E36.02784
G1 X155.416 Y184.3 E36.0579
G1 X154.642 Y184.764 E36.08791
G1 X153.829 Y185.158 E36.11796
G1 X152.985 Y185.478 E36.14798
G1 X152.115 Y185.723 E36.17804
G1 X151.228 Y185.889 E36.20806
G1 X150.077 Y185.987 E36.24648
G1 X149.47 Y186 E36.26667
G1 X85.775 Y185.999 E38.38517
G1 X85.077 Y185.99 E38.40839
G1 X84.176 Y185.939 E38.43841
G1 X83.282 Y185.807 E38.46846
G1 X82.404 Y185.598 E38.49848
G1 X81.547 Y185.311 E38.52854
G1 X80.72 Y184.95 E38.55856
G1 X79.927 Y184.517 E38.58861
G1 X79.176 Y184.016 E38.61863
G1 X78.472 Y183.45 E38.64868
G1 X77.821 Y182.824 E38.67872
G1 X77.228 Y182.143 E38.70875
G1 X76.698 Y181.412 E38.73878
G1 X76.234 Y180.637 E38.76882
G1 X75.84 Y179.824 E38.79887
G1 X75.52 Y178.98 E38.82889
G1 X75.276 Y178.11 E38.85895
G1 X75.11 Y177.222 E38.88899
G1 X75.013 Y176.067 E38.92754
G1 X75 Y175.458 E38.9478
G1 X75 Y138.617 E40.17314
G1 X75.006 Y136.912 E40.22985
G1 X75 Y136.075 E40.25769
G1 X75 Y99.117 E41.48692
G1 X75.006 Y97.412 E41.54363
G1 X75 Y96.575 E41.57147
G1 X75.001 Y59.736 E42.79674
G1 F2700 E37.79674
;MESH:jumbotron-Body.stl(1)
G0 F6000 X84.535 Y59.736
G0 X85.63 Y59.736
G0 X85.88 Y96.12
G1 F2700 E42.79674
G0 F6000 X85.4 Y96.6
;TYPE:WALL-OUTER
G1 F1200 X149.6 Y96.6 E44.93204
G1 X149.6 Y59.4 E46.16931
G1 X85.4 Y59.4 E48.30461
G1 X85.4 Y96.6 E49.54189
G0 F6000 X85.8 Y96.2
;TYPE:WALL-INNER
G1 F1200 X149.2 Y96.2 E51.65058
G1 X149.2 Y59.8 E52.86125
G1 X85.8 Y59.8 E54.96995
G1 X85.8 Y96.2 E56.18061
G0 F6000 X86.2 Y95.8
G1 F1200 X148.8 Y95.8 E58.2627
G1 X148.8 Y60.2 E59.44676
G1 X86.2 Y60.2 E61.52884
G1 X86.2 Y95.8 E62.7129
G1 F2700 E57.7129
G0 F6000 X100 Y95.6
G0 X100.001 Y93.181
G0 X100 Y92.71
G1 F2700 E62.7129
G0 F6000 X100 Y92.2
;TYPE:WALL-OUTER
G1 F1200 X99.88 Y92.161 E62.7171
G1 X99.803 Y92.037 E62.72196
G1 X99.8 Y92 E62.72319
G1 X99.8 Y64 E63.65447
G1 X99.84 Y63.88 E63.65868
G1 X99.965 Y63.802 E63.66358
G1 X100 Y63.8 E63.66475
G1 X135 Y63.8 E64.82885
G1 X135.12 Y63.839 E64.83305
G1 X135.197 Y63.963 E64.8379
G1 X135.2 Y64 E64.83914
G1 X135.2 Y92 E65.77042
G1 X135.16 Y92.12 E65.77463
G1 X135.035 Y92.198 E65.77953
G1 X135 Y92.2 E65.7807
G1 X100 Y92.2 E66.9448
G0 F6000 X100 Y92.6
;TYPE:WALL-INNER
G1 F1200 X99.805 Y92.568 E66.95137
G1 X99.64 Y92.481 E66.95758
G1 X99.446 Y92.231 E66.9681
G1 X99.4 Y92 E66.97594
G1 X99.4 Y64 E67.90722
G1 X99.446 Y63.769 E67.91505
G1 X99.64 Y63.519 E67.92558
G1 X99.896 Y63.408 E67.93486
G1 X100 Y63.4 E67.93833
G1 X135 Y63.4 E69.10243
G1 X135.195 Y63.432 E69.10901
G1 X135.36 Y63.519 E69.11521
G1 X135.554 Y63.769 E69.12574
G1 X135.6 Y64 E69.13357
G1 X135.6 Y92 E70.06485
G1 X135.554 Y92.231 E70.07269
G1 X135.36 Y92.481 E70.08321
G1 X135.104 Y92.592 E70.09249
G1 X135 Y92.6 E70.09596
G1 X100 Y92.6 E71.26007
G0 F6000 X100 Y93
G1 F1200 X99.675 Y92.947 E71.27102
G1 X99.4 Y92.801 E71.28137
G1 X99.2 Y92.6 E71.29081
G1 X99.076 Y92.385 E71.29906
G1 X99 Y92 E71.31211
G1 X99 Y64 E72.2434
G1 X99.076 Y63.615 E72.25645
G1 X99.2 Y63.4 E72.2647
G1 X99.4 Y63.199 E72.27413
G1 X99.675 Y63.053 E72.28449
G1 X100 Y63 E72.29544
G1 X135 Y63 E73.45955
G1 X135.325 Y63.053 E73.4705
G1 X135.6 Y63.199 E73.48086
G1 X135.8 Y63.4 E73.49029
G1 X135.924 Y63.615 E73.49854
G1 X136 Y64 E73.51159
G1 X136 Y92 E74.44288
G1 X135.924 Y92.385 E74.45593
G1 X135.8 Y92.6 E74.46418
G1 X135.6 Y92.801 E74.47362
G1 X135.325 Y92.947 E74.48397
G1 X135 Y93 E74.49492
G1 X100 Y93 E75.65903
G0 F6000 X100.002 Y93.36
;TYPE:SKIN
G1 F1200 X99.587 Y93.296 E75.67299
G1 X99.21 Y93.107 E75.68702
G1 X98.93 Y92.838 E75.69994
G1 X98.753 Y92.54 E75.71146
G1 X98.643 Y92.039 E75.72852
G1 X98.64 Y92 E75.72982
G1 X98.64 Y64.003 E76.66101
G1 X98.73 Y63.52 E76.67735
G1 X98.898 Y63.205 E76.68922
G1 X99.163 Y62.928 E76.70197
G1 X99.528 Y62.725 E76.71587
G1 X99.973 Y62.642 E76.73092
G1 X100.005 Y62.64 E76.73199
G1 X134.998 Y62.64 E77.89586
G1 X135.413 Y62.704 E77.90983
G1 X135.79 Y62.893 E77.92385
G1 X136.07 Y63.162 E77.93677
G1 X136.247 Y63.46 E77.94829
G1 X136.357 Y63.961 E77.96535
G1 X136.36 Y64 E77.96666
G1 X136.36 Y91.997 E78.89784
G1 X136.27 Y92.48 E78.91418
G1 X136.102 Y92.795 E78.92605
G1 X135.837 Y93.072 E78.9388
G1 X135.472 Y93.275 E78.9527
G1 X135.027 Y93.358 E78.96775
G1 X134.995 Y93.36 E78.96882
G1 X100.002 Y93.36 E80.13269
G1 F2700 E75.13269
G0 F6000 X100.002 Y93.1
G0 X102.945 Y93.16
G0 X99.055 Y95.6
G0 X86.372 Y95.628
G1 F2700 E80.13269
G0 F6000 X86.56 Y95.44
G1 F1200 X148.44 Y95.44 E82.19083
G1 X148.44 Y60.56 E83.35094
G1 X86.56 Y60.56 E85.40908
G1 X86.56 Y95.44 E86.56919
G0 F6000 X87.319 Y95.239
G1 F1200 X86.759 Y94.678 E86.59556
G0 F6000 X86.759 Y94.113
G1 F1200 X87.885 Y95.239 E86.64852
G0 F6000 X88.451 Y95.239
G1 F1200 X86.759 Y93.547 E86.72811
G0 F6000 X86.759 Y92.981
G1 F1200 X89.016 Y95.239 E86.83429
G0 F6000 X89.582 Y95.239
G1 F1200 X86.759 Y92.416 E86.96708
G0 F6000 X86.759 Y91.85
G1 F1200 X90.148 Y95.239 E87.12649
G0 F6000 X90.714 Y95.239
G1 F1200 X86.759 Y91.284 E87.31252
G0 F6000 X86.759 Y90.718
G1 F1200 X91.279 Y95.239 E87.52515
G0 F6000 X91.845 Y95.239
G1 F1200 X86.759 Y90.153 E87.76438
G0 F6000 X86.759 Y89.587
G1 F1200 X92.411 Y95.239 E88.03023
G0 F6000 X92.976 Y95.239
G1 F1200 X86.759 Y89.021 E88.32268
G0 F6000 X86.759 Y88.456
G1 F1200 X93.542 Y95.239 E88.64173
G0 F6000 X94.108 Y95.239
G1 F1200 X86.759 Y87.89 E88.98741
G0 F6000 X86.759 Y87.324
G1 F1200 X94.673 Y95.239 E89.35968
G0 F6000 X95.239 Y95.239
G1 F1200 X86.759 Y86.759 E89.75855
G0 F6000 X86.759 Y86.193
G1 F1200 X95.805 Y95.239 E90.18405
G0 F6000 X96.37 Y95.239
G1 F1200 X86.759 Y85.627 E90.63615
G0 F6000 X86.759 Y85.062
G1 F1200 X96.936 Y95.239 E91.11484
G0 F6000 X97.502 Y95.239
G1 F1200 X86.759 Y84.496 E91.62016
G0 F6000 X86.759 Y83.93
G1 F1200 X98.067 Y95.239 E92.15208
G0 F6000 X98.633 Y95.239
G1 F1200 X86.759 Y83.365 E92.71059
G0 F6000 X86.759 Y82.799
G1 F1200 X99.199 Y95.239 E93.29573
G0 F6000 X99.764 Y95.239
G1 F1200 X86.759 Y82.233 E93.90747
G0 F6000 X86.759 Y81.668
G1 F1200 X100.33 Y95.239 E94.54581
G0 F6000 X100.896 Y95.239
G1 F1200 X86.759 Y81.102 E95.21077
G0 F6000 X86.759 Y80.536
G1 F1200 X98.487 Y92.264 E95.76242
G0 F6000 X98.439 Y91.65
G1 F1200 X86.759 Y79.97 E96.31181
G0 F6000 X86.759 Y79.405
G1 F1200 X98.439 Y91.085 E96.8612
G0 F6000 X98.439 Y90.519
G1 F1200 X86.759 Y78.839 E97.41059
G0 F6000 X86.759 Y78.273
G1 F1200 X98.439 Y89.953 E97.95998
G0 F6000 X98.439 Y89.388
G1 F1200 X86.759 Y77.708 E98.50938
G0 F6000 X86.759 Y77.142
G1 F1200 X98.439 Y88.822 E99.05877
G0 F6000 X98.439 Y88.256
G1 F1200 X86.759 Y76.576 E99.60816
G0 F6000 X86.759 Y76.011
G1 F1200 X98.439 Y87.691 E100.15755
G0 F6000 X98.439 Y87.125
G1 F1200 X86.759 Y75.445 E100.70694
G0 F6000 X86.759 Y74.879
G1 F1200 X98.439 Y86.559 E101.25633
G0 F6000 X98.439 Y85.994
G1 F1200 X86.759 Y74.314 E101.80572
G0 F6000 X86.759 Y73.748
G1 F1200 X98.439 Y85.428 E102.35512
G0 F6000 X98.439 Y84.862
G1 F1200 X86.759 Y73.182 E102.90451
G0 F6000 X86.759 Y72.617
G1 F1200 X98.439 Y84.297 E103.4539
G0 F6000 X98.439 Y83.731
G1 F1200 X86.759 Y72.051 E104.00329
G0 F6000 X86.759 Y71.485
G1 F1200 X98.439 Y83.165 E104.55268
G0 F6000 X98.439 Y82.599
G1 F1200 X86.759 Y70.919 E105.10207
G0 F6000 X86.759 Y70.354
G1 F1200 X98.439 Y82.034 E105.65146
G0 F6000 X98.439 Y81.468
G1 F1200 X86.759 Y69.788 E106.20086
G0 F6000 X86.759 Y69.222
G1 F1200 X98.439 Y80.902 E106.75025
G0 F6000 X98.439 Y80.337
G1 F1200 X86.759 Y68.657 E107.29964
G0 F6000 X86.759 Y68.091
G1 F1200 X98.439 Y79.771 E107.84903
G0 F6000 X98.439 Y79.205
G1 F1200 X86.759 Y67.525 E108.39842
G0 F6000 X86.759 Y66.96
G1 F1200 X98.439 Y78.64 E108.94781
G0 F6000 X98.439 Y78.074
G1 F1200 X86.759 Y66.394 E109.4972
G0 F6000 X86.759 Y65.828
G1 F1200 X98.439 Y77.508 E110.0466
G0 F6000 X98.439 Y76.943
G1 F1200 X86.759 Y65.263 E110.59599
G0 F6000 X86.759 Y64.697
G1 F1200 X98.439 Y76.377 E111.14538
G0 F6000 X98.439 Y75.811
G1 F1200 X86.759 Y64.131 E111.69477
G0 F6000 X86.759 Y63.566
G1 F1200 X98.439 Y75.246 E112.24416
